src/logo.svg

<svg xmlns="http://www.w3.org/2000/svg" width="64" height="64" version="1">
 <path style="opacity:0.2" d="m 4,56 0,2 c 0,1.662 1.338,3 3,3 l 50,0 c 1.662,0 3,-1.338 3,-3 l 0,-2 c 0,1.662 -1.338,3 -3,3 L 7,59 C 5.338,59 4,57.662 4,56 Z"/>
 <rect style="fill:#3f7bc2" width="56" height="56" x="-60" y="-60" rx="3" ry="3" transform="matrix(0,-1,-1,0,0,0)"/>
 <path style="opacity:0.1;fill:#ffffff" d="M 7 4 C 5.338 4 4 5.338 4 7 L 4 8 C 4 6.338 5.338 5 7 5 L 57 5 C 58.662 5 60 6.338 60 8 L 60 7 C 60 5.338 58.662 4 57 4 L 7 4 z"/>
 <path style="opacity:0.2" d="M 50.426,17.0624 27.8,39.6884 13.6562,25.5464 8,31.2044 l 14.144,14.14 5.656,5.656 5.6562,-5.6562 22.624,-22.624 -5.6562,-5.6562 z"/>
 <path style="fill:#ffffff" d="M 50.426,16.0624 27.8,38.6884 13.6562,24.5464 8,30.2044 l 14.144,14.14 5.656,5.656 5.6562,-5.6562 22.624,-22.624 -5.6562,-5.6562 z"/>
</svg>

<svg xmlns="http://www.w3.org/2000/svg" width="64" height="64" version="1"><path d="M4 56v2c0 1.662 1.338 3 3 3h50c1.662 0 3-1.338 3-3v-2c0 1.662-1.338 3-3 3H7c-1.662 0-3-1.338-3-3z" opacity=".2"/><rect width="56" height="56" x="-60" y="-60" rx="3" ry="3" transform="matrix(0 -1 -1 0 0 0)" fill="#3f7bc2"/><path d="M7 4C5.338 4 4 5.338 4 7v1c0-1.662 1.338-3 3-3h50c1.662 0 3 1.338 3 3V7c0-1.662-1.338-3-3-3H7z" opacity=".1" fill="#fff"/><path d="M50.426 17.062L27.8 39.688 13.656 25.546 8 31.204l14.144 14.14L27.8 51l5.656-5.656L56.08 22.72l-5.656-5.656z" opacity=".2"/><path d="M50.426 16.062L27.8 38.688 13.656 24.546 8 30.204l14.144 14.14L27.8 50l5.656-5.656L56.08 21.72l-5.656-5.656z" fill="#fff"/></svg>
